src/pos-icons/alpha-e.svg

<svg height="24" viewBox="0 0 24 24" width="24" xmlns="http://www.w3.org/2000/svg"><path d="m9 7v10h6v-2h-4v-2h4v-2h-4v-2h4v-2z"/></svg>

<?xml version="1.0" encoding="UTF-8"?><!DOCTYPE svg PUBLIC "-//W3C//DTD SVG 1.1//EN" "http://www.w3.org/Graphics/SVG/1.1/DTD/svg11.dtd"><svg xmlns="http://www.w3.org/2000/svg" xmlns:xlink="http://www.w3.org/1999/xlink" version="1.1" id="mdi-alpha-e" width="24" height="24" viewBox="0 0 24 24"><path d="M9,7V17H15V15H11V13H15V11H11V9H15V7H9Z" /></svg>
